X: 11015
T: Drunken Tinker, The
R: reel
M: 4/4
K: Gmixolydian
DGGF DEF2|DGG2 eGdG|DGGF D3E|F2CF AB~c2|
[DA]GG2 DEF2|DGG2 eGdG|DGGF D3E|F2CF ABcA|
dGG/G/G dGeG|dGG/G/G d2cA|dGG/G/G d2ed|(3cdc AF CFAc|
dGG/G/G eGG/G/G|dGG/G/G d2cA|dcde fefd|(3cdc AF CFAF|

